X: 6
T: In And Out The Windows
R: polka
M: 2/4
L: 1/8
K: Gmaj
G|DG B>c|BA z A|DF A>B|AG z G|
DG B>c|BA z z/ A/|dd cA|G3||

